gtk-icons/Papirus-GTK/24x24/actions/media-repeat-playlist-amarok.svg

<?xml version="1.0" encoding="UTF-8" standalone="no"?>
<!-- Created with Inkscape (http://www.inkscape.org/) -->

<svg
   xmlns:osb="http://www.openswatchbook.org/uri/2009/osb"
   xmlns:dc="http://purl.org/dc/elements/1.1/"
   xmlns:cc="http://creativecommons.org/ns#"
   xmlns:rdf="http://www.w3.org/1999/02/22-rdf-syntax-ns#"
   xmlns:svg="http://www.w3.org/2000/svg"
   xmlns="http://www.w3.org/2000/svg"
   xmlns:sodipodi="http://sodipodi.sourceforge.net/DTD/sodipodi-0.dtd"
   xmlns:inkscape="http://www.inkscape.org/namespaces/inkscape"
   sodipodi:docname="media-repeat-playlist-amarok.svg"
   inkscape:export-filename="/home/sam/source-symbolic.png"
   inkscape:export-xdpi="270"
   inkscape:export-ydpi="270"
   height="24"
   id="svg7384"
   style="enable-background:new"
   version="1.1"
   inkscape:version="0.91 r13725"
   width="24">
  <sodipodi:namedview
     inkscape:bbox-nodes="true"
     inkscape:bbox-paths="false"
     bordercolor="#666666"
     borderlayer="false"
     borderopacity="1"
     inkscape:current-layer="layer12"
     inkscape:cx="-1.274255"
     inkscape:cy="12.005272"
     gridtolerance="10"
     inkscape:guide-bbox="true"
     guidetolerance="10"
     id="namedview88"
     inkscape:object-nodes="true"
     inkscape:object-paths="true"
     objecttolerance="10"
     pagecolor="#f7f7f7"
     inkscape:pageopacity="0"
     inkscape:pageshadow="2"
     showborder="true"
     showgrid="false"
     showguides="false"
     inkscape:showpageshadow="false"
     inkscape:snap-bbox="true"
     inkscape:snap-bbox-edge-midpoints="false"
     inkscape:snap-bbox-midpoints="true"
     inkscape:snap-center="false"
     inkscape:snap-global="true"
     inkscape:snap-grids="true"
     inkscape:snap-intersection-paths="true"
     inkscape:snap-midpoints="true"
     inkscape:snap-nodes="true"
     inkscape:snap-object-midpoints="true"
     inkscape:snap-others="true"
     inkscape:snap-page="false"
     inkscape:snap-smooth-nodes="true"
     inkscape:snap-to-guides="true"
     inkscape:window-height="847"
     inkscape:window-maximized="1"
     inkscape:window-width="1600"
     inkscape:window-x="0"
     inkscape:window-y="30"
     inkscape:zoom="18.55">
    <inkscape:grid
       color="#000000"
       dotted="false"
       empcolor="#0800ff"
       empopacity="0.4627451"
       empspacing="4"
       enabled="true"
       id="grid4866"
       opacity="0.16470588"
       originx="-24.0002"
       originy="-336.00336"
       snapvisiblegridlinesonly="true"
       spacingx="0.25px"
       spacingy="0.25px"
       type="xygrid"
       visible="true" />
  </sodipodi:namedview>
  <metadata
     id="metadata90">
    <rdf:RDF>
      <cc:Work
         rdf:about="">
        <dc:format>image/svg+xml</dc:format>
        <dc:type
           rdf:resource="http://purl.org/dc/dcmitype/StillImage" />
        <dc:title>Paper Symbolic Icon Theme</dc:title>
      </cc:Work>
    </rdf:RDF>
  </metadata>
  <title
     id="title8473">Paper Symbolic Icon Theme</title>
  <defs
     id="defs7386">
    <linearGradient
       id="linearGradient5606"
       osb:paint="solid">
      <stop
         id="stop5608"
         offset="0"
         style="stop-color:#000000;stop-opacity:1;" />
    </linearGradient>
  </defs>
  <g
     inkscape:groupmode="layer"
     id="layer12"
     inkscape:label="actions"
     style="display:inline"
     transform="translate(-265.0004,127.00336)">
    <rect
       style="color:#000000;display:inline;overflow:visible;visibility:visible;fill:none;stroke:none;stroke-width:7.5;marker:none;enable-background:accumulate"
       id="rect4198"
       width="16"
       height="16"
       x="265.00049"
       y="-119.00336" />
    <rect
       style="color:#000000;display:inline;overflow:visible;visibility:visible;fill:none;stroke:none;stroke-width:6;marker:none;enable-background:accumulate"
       id="rect3038"
       width="16"
       height="16"
       x="265.00049"
       y="-119.00336" />
    <path
       style="color:#000000;display:inline;overflow:visible;visibility:visible;opacity:0.5;fill:#000000;fill-opacity:1;fill-rule:nonzero;stroke:none;stroke-width:3;marker:none;enable-background:accumulate"
       d="M 9 6 L 9 8 L 6.9316406 8 C 5.8618506 8 5 8.9391488 5 10.105469 L 5 15.894531 C 5 17.060851 5.8618506 18 6.9316406 18 L 17.068359 18 C 18.138149 18 19 17.060851 19 15.894531 L 19 10.105469 C 19 8.9391488 18.138149 8 17.068359 8 L 15 8 L 15 10 L 16.998047 10 C 16.996047 10.009 17 10.026299 17 10.105469 L 17 15.894531 C 17 15.973631 16.996047 15.99113 16.998047 16 L 16 16 L 16 15 L 13 15 L 13 16 L 7.0039062 16 C 7.0049062 15.991 7 15.973701 7 15.894531 L 7 10.105469 C 7 10.026269 7.0049062 10.00887 7.0039062 10 L 9 10 L 9 12 L 13 9 L 9 6 z M 13 11 L 13 12 L 16 12 L 16 11 L 13 11 z M 13 13 L 13 14 L 16 14 L 16 13 L 13 13 z "
       transform="translate(265.0004,-127.00336)"
       id="path4214" />
  </g>
</svg>

<?xml version="1.0" encoding="UTF-8" standalone="no"?>
<!-- Created with Inkscape (http://www.inkscape.org/) -->
<svg id="svg7384" xmlns:rdf="http://www.w3.org/1999/02/22-rdf-syntax-ns#" style="enable-background:new" xmlns="http://www.w3.org/2000/svg" xmlns:osb="http://www.openswatchbook.org/uri/2009/osb" height="24" width="24" version="1.1" xmlns:cc="http://creativecommons.org/ns#" xmlns:dc="http://purl.org/dc/elements/1.1/">
 <metadata id="metadata90">
  <rdf:RDF>
   <cc:Work rdf:about="">
    <dc:format>image/svg+xml</dc:format>
    <dc:type rdf:resource="http://purl.org/dc/dcmitype/StillImage"/>
    <dc:title>Paper Symbolic Icon Theme</dc:title>
   </cc:Work>
  </rdf:RDF>
 </metadata>
 <title id="title8473">Paper Symbolic Icon Theme</title>
 <g id="layer12" transform="translate(-265 127)">
  <rect id="rect4198" style="color:#000000;enable-background:accumulate" height="16" width="16" y="-119" x="265" fill="none"/>
  <rect id="rect3038" style="color:#000000;enable-background:accumulate" height="16" width="16" y="-119" x="265" fill="none"/>
  <path id="path4214" opacity=".5" style="color:#000000;enable-background:accumulate" d="m9 6v2h-2.0684c-1.0697 0-1.9316 0.9391-1.9316 2.105v5.79c0 1.166 0.8619 2.105 1.9316 2.105h10.136c1.07 0 1.932-0.939 1.932-2.105v-5.79c0-1.1659-0.862-2.105-1.932-2.105h-2.068v2h1.998c-0.002 0.009 0.002 0.026 0.002 0.105v5.79c0 0.079-0.004 0.096-0.002 0.105h-0.998v-1h-3v1h-5.9961c0.001-0.009-0.0039-0.026-0.0039-0.105v-5.79c0-0.079 0.0049-0.096 0.0039-0.105h1.9961v2l4-3-4-3zm4 5v1h3v-1h-3zm0 2v1h3v-1h-3z" transform="translate(265 -127)"/>
 </g>
</svg>
